src/images/svg/symbols/markets-stocks-and-indices/american-stocks/stocks-hugo-boss.svg

<svg width="32" height="32" viewBox="0 0 32 32" fill="none" xmlns="http://www.w3.org/2000/svg">
<path d="M0 16C0 7.16344 7.16344 0 16 0C24.8366 0 32 7.16344 32 16C32 24.8366 24.8366 32 16 32C7.16344 32 0 24.8366 0 16Z" fill="#060403"/>
<path fill-rule="evenodd" clip-rule="evenodd" d="M10.48 14.7952C10.4796 14.1592 10.6678 13.5374 11.0208 13.0084C11.3738 12.4794 11.8758 12.067 12.4632 11.8234C13.0506 11.5798 13.6971 11.5158 14.3209 11.6397C14.9447 11.7635 15.5177 12.0696 15.9675 12.5192C16.4173 12.9688 16.7237 13.5417 16.8478 14.1654C16.972 14.7891 16.9083 15.4357 16.6649 16.0232C16.4216 16.6108 16.0094 17.1129 15.4806 17.4662C14.9518 17.8194 14.3301 18.0079 13.6941 18.0078C12.8419 18.0078 12.0246 17.6693 11.4219 17.0669C10.8192 16.4645 10.4804 15.6473 10.48 14.7952ZM13.6934 17.7381C14.9526 17.7218 15.3897 16.1167 15.3882 14.7907C15.3867 13.4648 14.84 11.8315 13.6934 11.8315C12.4852 11.8315 11.9956 13.4611 11.9978 14.7907C12 16.1204 12.4371 17.7537 13.6934 17.7381Z" fill="white"/>
<path d="M22.4734 15.8544C22.5349 16.5522 22.2275 17.8544 20.2512 17.9337C19.3771 17.9693 18.28 17.6974 17.8452 17.4959V15.8167H18.063C18.1104 16.0218 18.5215 17.573 19.966 17.6426C20.8037 17.6811 21.4415 17.3307 21.4571 16.633C21.4748 15.8917 20.7207 15.5964 19.9724 15.3034C19.9063 15.2775 19.8403 15.2517 19.7749 15.2255C18.8645 14.8618 17.9823 14.5011 17.86 13.5144C17.7119 12.3655 18.7808 11.5833 19.9986 11.6329C20.638 11.6629 21.2681 11.7988 21.863 12.0352V13.4478H21.6475C21.5252 12.6796 21.0615 11.9529 20.0126 11.8922C19.4008 11.8537 18.84 12.0826 18.8393 12.7492C18.8387 13.3041 19.6089 13.585 20.3327 13.849C20.4785 13.9021 20.6225 13.9546 20.7578 14.0085C21.5771 14.3337 22.3763 14.7796 22.4734 15.8604V15.8544Z" fill="white"/>
<path fill-rule="evenodd" clip-rule="evenodd" d="M21.9097 19.6959C21.9097 20.1077 21.6978 20.4233 21.2304 20.4233C20.7623 20.4233 20.5504 20.1077 20.5504 19.6959C20.5504 19.284 20.763 18.9685 21.2304 18.9685C21.6978 18.9685 21.9097 19.284 21.9097 19.6959ZM21.5919 19.6959C21.5919 19.4529 21.5341 19.1833 21.2304 19.1833C20.926 19.1833 20.8682 19.4522 20.8682 19.6959C20.8682 19.9396 20.9267 20.2092 21.2304 20.2092C21.5341 20.2092 21.5919 19.9388 21.5919 19.6959Z" fill="white"/>
<path d="M24.1978 18.973C24.4512 18.973 24.723 19.1233 24.723 19.3981H24.4304C24.4326 19.3662 24.4278 19.3341 24.4164 19.3042C24.405 19.2742 24.3872 19.2471 24.3644 19.2247C24.3415 19.2022 24.314 19.185 24.2839 19.1741C24.2537 19.1633 24.2216 19.1591 24.1897 19.1618C24.0312 19.1618 23.9571 19.2352 23.9571 19.3381C23.9571 19.4411 24.0275 19.4826 24.1926 19.5337C24.2376 19.5484 24.2824 19.5607 24.3281 19.5732C24.3539 19.5803 24.38 19.5874 24.4067 19.5952C24.6149 19.6567 24.7771 19.7752 24.7771 19.9878C24.7771 20.2633 24.5141 20.4196 24.2282 20.4196C23.8578 20.4196 23.6356 20.247 23.6356 19.9463H23.9319C23.9319 20.0989 24.0104 20.227 24.2326 20.227C24.3171 20.227 24.4652 20.1774 24.4652 20.0293C24.4652 19.9181 24.4008 19.8685 24.2149 19.8167C24.1845 19.8089 24.1365 19.7942 24.0898 19.78L24.0898 19.78C24.0566 19.7699 24.0242 19.76 23.9993 19.753C23.806 19.6944 23.666 19.5922 23.666 19.3981C23.666 19.1263 23.9445 18.973 24.1978 18.973Z" fill="white"/>
<path d="M10.9963 19.8766V20.1507C10.9123 20.179 10.8242 20.1927 10.7356 20.1914C10.4563 20.1914 10.3371 20.0018 10.3371 19.6959C10.3371 19.39 10.4452 19.2003 10.7074 19.2003C10.8815 19.2003 10.9904 19.3114 10.9904 19.4314H11.2867C11.2867 19.164 11.0489 18.987 10.6896 18.987C10.4052 18.987 10.023 19.1537 10.023 19.6922C10.023 20.2307 10.3934 20.3981 10.7215 20.3981C10.9164 20.4035 11.1102 20.3679 11.2904 20.2937V19.647H10.7274V19.8692L10.9963 19.8766Z" fill="white"/>
<path d="M8.05928 19.7552V19.0189H8.36076V19.8678C8.36076 20.2285 8.0941 20.4026 7.7615 20.4026C7.42891 20.4026 7.16298 20.2285 7.16298 19.8678V19.0189H7.46669V19.7552C7.46669 19.9841 7.47336 20.1893 7.76299 20.1893C8.05262 20.1893 8.05928 19.9841 8.05928 19.7552Z" fill="white"/>
<path d="M4.59037 19.7796V20.3744H4.2963V19.0196H4.59037V19.5544H5.15482V19.0196H5.4526V20.3744H5.15778V19.7796H4.59037Z" fill="white"/>
<path d="M27.6297 19.3981C27.6297 19.1233 27.3586 18.973 27.1052 18.973C26.8519 18.973 26.5734 19.1263 26.5734 19.3981C26.5734 19.5922 26.7134 19.6944 26.9067 19.753C26.934 19.7606 26.9698 19.7716 27.0056 19.7825C27.0495 19.7959 27.0934 19.8093 27.1215 19.8167C27.3089 19.8685 27.3734 19.9181 27.3734 20.0293C27.3734 20.1774 27.2252 20.227 27.14 20.227C26.9178 20.227 26.84 20.0989 26.84 19.9463H26.5437C26.5437 20.247 26.766 20.4196 27.1363 20.4196C27.4223 20.4196 27.6852 20.2633 27.6852 19.9878C27.6852 19.7752 27.523 19.6567 27.3149 19.5952C27.288 19.5874 27.2619 19.5802 27.2361 19.5731C27.1906 19.5606 27.1461 19.5483 27.1008 19.5337C26.9363 19.4826 26.866 19.4411 26.866 19.3381C26.866 19.2352 26.94 19.1618 27.0986 19.1618C27.1305 19.1591 27.1626 19.1633 27.1928 19.1741C27.2229 19.185 27.2504 19.2022 27.2732 19.2247C27.2961 19.2471 27.3138 19.2742 27.3252 19.3042C27.3367 19.3341 27.3414 19.3662 27.3393 19.3981H27.6297Z" fill="white"/>
<path fill-rule="evenodd" clip-rule="evenodd" d="M14.3067 19.6966C14.3067 20.1048 14.0971 20.4166 13.6341 20.4166C13.1711 20.4166 12.9615 20.104 12.9615 19.6966C12.9615 19.2892 13.1711 18.9774 13.6341 18.9774C14.0971 18.9774 14.3067 19.2885 14.3067 19.6966ZM13.9867 19.6966C13.9867 19.4596 13.9304 19.1907 13.6341 19.1907C13.3371 19.1907 13.2808 19.4589 13.2808 19.6966C13.2808 19.9344 13.3378 20.2033 13.6341 20.2033C13.9304 20.2033 13.9867 19.9337 13.9867 19.6966Z" fill="white"/>
<path fill-rule="evenodd" clip-rule="evenodd" d="M18.3082 20.3885C18.5852 20.3885 18.8341 20.2559 18.8341 20.0063C18.8342 19.9185 18.8003 19.8341 18.7395 19.7707C18.6788 19.7073 18.5959 19.6699 18.5082 19.6663C18.58 19.6536 18.6453 19.6167 18.6931 19.5617C18.741 19.5067 18.7685 19.4369 18.7711 19.364C18.7711 19.1196 18.583 19.0055 18.2941 19.0055H17.6963V20.3885H18.3082ZM17.9911 20.1774V19.7803H18.2585C18.3897 19.7803 18.5022 19.8196 18.5022 19.9759C18.5022 20.1322 18.3837 20.1781 18.2585 20.1781L17.9911 20.1774ZM17.9911 19.5722V19.2174H18.2645C18.2893 19.2152 18.3143 19.2182 18.3379 19.2264C18.3615 19.2345 18.383 19.2476 18.4012 19.2646C18.4194 19.2817 18.4338 19.3024 18.4434 19.3254C18.453 19.3484 18.4577 19.3732 18.4571 19.3981C18.4553 19.4231 18.4485 19.4475 18.4372 19.4699C18.4259 19.4922 18.4102 19.5121 18.3911 19.5283C18.372 19.5445 18.3498 19.5568 18.3259 19.5643C18.302 19.5718 18.2768 19.5745 18.2519 19.5722H17.9911Z" fill="white"/>
<path d="M25.7704 17.9337C27.7467 17.8544 28.0556 16.5522 27.9927 15.8544V15.8604C27.8956 14.7796 27.0867 14.33 26.2786 14.0085C26.1434 13.9547 25.9998 13.9024 25.8543 13.8493C25.1299 13.5853 24.3593 13.3044 24.3593 12.7492C24.3593 12.0826 24.9208 11.8537 25.5319 11.8922C26.5808 11.9529 27.0445 12.6796 27.1675 13.4478H27.3823V12.0352C26.7876 11.7988 26.1578 11.6629 25.5186 11.6329C24.3001 11.5833 23.2356 12.3655 23.3801 13.5144C23.5023 14.5011 24.3838 14.8618 25.2949 15.2255C25.3605 15.2518 25.4268 15.2778 25.4931 15.3038L25.4932 15.3038L25.4935 15.3039C26.2409 15.5968 26.9947 15.8921 26.9764 16.633C26.9615 17.3307 26.323 17.6811 25.4852 17.6426C24.0415 17.573 23.6297 16.0218 23.583 15.8167H23.3652V17.4959C23.8001 17.6974 24.8971 17.9693 25.7704 17.9337Z" fill="white"/>
<path fill-rule="evenodd" clip-rule="evenodd" d="M4.14963 17.6018C4.34667 17.6062 4.55111 17.5166 4.55111 17.3359V12.1788C4.55111 11.9862 4.34222 11.9492 4.21111 11.9492H4.03704V11.7159H7.48667C8.35482 11.7144 9.27705 12.1203 9.31779 12.9892C9.35557 13.8011 8.54742 14.3722 7.86445 14.4825C8.29779 14.5203 9.68594 14.7581 9.66964 16.1122C9.65705 17.2951 8.42297 17.8314 7.27038 17.8314H4V17.6018H4.14963ZM5.94741 14.6485V17.5818L6.75852 17.5833C7.58297 17.5833 8.23186 16.904 8.18668 16.0233C8.14964 15.2907 7.67334 14.6485 6.76223 14.6485H5.94741ZM5.94741 11.9551V14.4136L6.6726 14.4173C6.83713 14.418 7.00004 14.3848 7.15123 14.3199C7.30241 14.255 7.43866 14.1597 7.55151 14.04C7.66436 13.9202 7.75142 13.7786 7.80729 13.6239C7.86316 13.4691 7.88665 13.3045 7.8763 13.1403C7.84297 12.3766 7.29778 11.9551 6.63112 11.9551H5.94741Z" fill="white"/>
</svg>

<svg width="32" height="32" fill="none" xmlns="http://www.w3.org/2000/svg"><path d="M0 16C0 7.163 7.163 0 16 0s16 7.163 16 16-7.163 16-16 16S0 24.837 0 16Z" fill="#060403"/><path fill-rule="evenodd" clip-rule="evenodd" d="M10.48 14.795a3.215 3.215 0 1 1 6.43-.004 3.215 3.215 0 0 1-6.43.004Zm3.213 2.943c1.26-.016 1.697-1.621 1.695-2.947-.001-1.326-.548-2.96-1.695-2.96-1.208 0-1.697 1.63-1.695 2.96.002 1.33.44 2.963 1.695 2.947Z" fill="#fff"/><path d="M22.473 15.854c.062.698-.245 2-2.222 2.08-.874.035-1.971-.237-2.406-.438v-1.68h.218c.047.206.459 1.757 1.903 1.827.838.038 1.476-.312 1.491-1.01.018-.741-.736-1.037-1.485-1.33-.066-.026-.132-.051-.197-.078-.91-.363-1.793-.724-1.915-1.71-.148-1.15.92-1.932 2.139-1.882.639.03 1.27.166 1.864.402v1.413h-.215c-.123-.768-.587-1.495-1.635-1.556-.612-.038-1.173.19-1.174.857 0 .555.77.836 1.494 1.1.146.053.29.106.425.16.82.325 1.618.77 1.715 1.851v-.006Z" fill="#fff"/><path fill-rule="evenodd" clip-rule="evenodd" d="M21.91 19.696c0 .412-.212.727-.68.727-.468 0-.68-.315-.68-.727s.213-.728.68-.728c.468 0 .68.316.68.728Zm-.318 0c0-.243-.058-.513-.362-.513s-.362.27-.362.513c0 .244.059.513.362.513.304 0 .362-.27.362-.513Z" fill="#fff"/><path d="M24.198 18.973c.253 0 .525.15.525.425h-.293a.221.221 0 0 0-.24-.236c-.159 0-.233.073-.233.176s.07.145.236.196l.135.04.079.021c.208.062.37.18.37.393 0 .275-.263.432-.549.432-.37 0-.592-.173-.592-.474h.296c0 .153.078.281.3.281.085 0 .233-.05.233-.198 0-.11-.064-.16-.25-.212l-.125-.037-.09-.027c-.194-.059-.334-.16-.334-.355 0-.272.279-.425.532-.425ZM10.996 19.877v.274a.78.78 0 0 1-.26.04c-.28 0-.399-.19-.399-.495 0-.306.108-.496.37-.496.175 0 .283.111.283.231h.297c0-.267-.238-.444-.597-.444-.285 0-.667.167-.667.705 0 .539.37.706.699.706.194.006.388-.03.568-.104v-.647h-.563v.222l.27.008ZM8.06 19.755v-.736h.3v.849c0 .36-.266.535-.598.535-.333 0-.599-.174-.599-.535v-.85h.304v.737c0 .23.006.434.296.434s.296-.205.296-.434ZM4.59 19.78v.594h-.294V19.02h.294v.534h.565v-.534h.298v1.354h-.295v-.594H4.59ZM27.63 19.398c0-.275-.271-.425-.525-.425-.253 0-.532.153-.532.425 0 .194.14.296.334.355l.099.03.116.034c.187.052.251.101.251.212 0 .148-.148.198-.233.198-.222 0-.3-.128-.3-.28h-.296c0 .3.222.473.592.473.286 0 .55-.157.55-.432 0-.213-.163-.331-.371-.393a3.195 3.195 0 0 1-.214-.061c-.165-.051-.235-.093-.235-.196 0-.103.074-.176.233-.176a.224.224 0 0 1 .226.142c.012.03.016.062.014.094h.29Z" fill="#fff"/><path fill-rule="evenodd" clip-rule="evenodd" d="M14.307 19.697c0 .408-.21.72-.673.72-.463 0-.673-.313-.673-.72 0-.408.21-.72.673-.72.463 0 .673.311.673.72Zm-.32 0c0-.237-.057-.506-.353-.506-.297 0-.353.268-.353.506 0 .237.057.506.353.506s.353-.27.353-.506ZM18.308 20.389c.277 0 .526-.133.526-.383a.34.34 0 0 0-.326-.34.318.318 0 0 0 .263-.302c0-.244-.188-.358-.477-.358h-.598v1.383h.612Zm-.317-.212v-.397h.268c.13 0 .243.04.243.196s-.118.202-.243.202h-.268Zm0-.605v-.355h.274a.176.176 0 0 1 .192.181.19.19 0 0 1-.131.166.19.19 0 0 1-.074.008h-.26Z" fill="#fff"/><path d="M25.77 17.934c1.977-.08 2.286-1.382 2.223-2.08v.006c-.097-1.08-.906-1.53-1.714-1.851-.136-.054-.28-.107-.425-.16-.724-.264-1.495-.545-1.495-1.1 0-.666.562-.895 1.173-.857 1.049.06 1.512.788 1.636 1.556h.214v-1.413a5.779 5.779 0 0 0-1.863-.402c-1.219-.05-2.283.733-2.139 1.881.122.987 1.004 1.348 1.915 1.712l.198.078c.748.293 1.502.588 1.483 1.329-.014.698-.653 1.048-1.49 1.01-1.445-.07-1.856-1.621-1.903-1.826h-.218v1.679c.435.201 1.532.473 2.405.438Z" fill="#fff"/><path fill-rule="evenodd" clip-rule="evenodd" d="M4.15 17.602c.197.004.401-.085.401-.266v-5.157c0-.193-.209-.23-.34-.23h-.174v-.233h3.45c.868-.002 1.79.404 1.83 1.273.039.812-.77 1.383-1.453 1.493.434.038 1.822.276 1.806 1.63-.013 1.183-1.247 1.72-2.4 1.72H4v-.23h.15Zm1.797-2.954v2.934l.812.001c.824 0 1.473-.679 1.428-1.56-.037-.732-.514-1.374-1.425-1.374h-.815Zm0-2.693v2.459l.726.003a1.2 1.2 0 0 0 1.203-1.277c-.033-.763-.578-1.185-1.245-1.185h-.684Z" fill="#fff"/></svg>
